Newaita/actions/symbolic/mail-mark-notjunk-symbolic.svg

<svg height="16" viewBox="0 0 16 16" width="16" xmlns="http://www.w3.org/2000/svg"><path d="m7.9375 1.273438c-.347656 0-1.015625.003906-1.695312.058593-.679688.050781-1.289063.050781-1.917969.414063-.632813.367187-.941407.894531-1.324219 1.457031s-.722656 1.136719-.894531 1.4375c-.175781.300781-.503907.882813-.800781 1.5-.292969.613281-.597657 1.140625-.597657 1.871094 0 .726562.304688 1.257812.597657 1.871093.296874.613282.625 1.195313.800781 1.496094.171875.300782.511719.878906.894531 1.441406s.691406 1.089844 1.324219 1.453126c.628906.363281 1.238281.367187 1.917969.417968.679687.050782 1.347656.054688 1.695312.054688s1.015625-.003906 1.695312-.054688c.679688-.050781 1.289063-.054687 1.921876-.417968.628906-.363282.9375-.890626 1.320312-1.453126s.722656-1.140624.898438-1.441406c.171874-.300781.503906-.882812.796874-1.496094.296876-.613281.597657-1.144531.597657-1.871093 0-.730469-.300781-1.257813-.597657-1.871094-.292968-.617187-.625-1.199219-.796874-1.5-.175782-.300781-.515626-.875-.898438-1.4375s-.691406-1.089844-1.320312-1.457031c-.632813-.363282-1.242188-.363282-1.921876-.414063-.679687-.054687-1.347656-.058593-1.695312-.058593zm0 1.671874c.328125 0 .964844.007813 1.570312.050782.558594.042968 1.160157.199218 1.207032.203125.027344.039062.464844.480469.78125.945312.339844.5.664062 1.050781.828125 1.332031.164062.285157.476562.839844.738281 1.386719.246094.507813.410156 1.101563.433594 1.148438-.023438.042969-.1875.640625-.433594 1.144531-.261719.546875-.574219 1.101562-.738281 1.386719-.164063.285156-.488281.832031-.828125 1.332031-.316406.464844-.753906.90625-.78125.949219-.046875 0-.648438.15625-1.207032.199219-.605468.046874-1.242187.050781-1.570312.050781s-.964844-.003907-1.570312-.050781c-.558594-.042969-1.15625-.199219-1.207032-.199219-.027344-.042969-.460937-.484375-.777344-.949219-.34375-.5-.667968-1.046875-.832031-1.332031-.164062-.285157-.476562-.839844-.738281-1.386719-.242188-.503906-.40625-1.101562-.429688-1.144531.023438-.046875.1875-.640625.429688-1.148438.261719-.546875.574219-1.101562.738281-1.386719.164063-.28125.488281-.832031.832031-1.332031.316407-.464843.75-.90625.777344-.945312.050782-.003907.648438-.160157 1.207032-.203125.605468-.042969 1.242187-.050782 1.570312-.050782zm-.328125 1.148438c-.367187 0-.664063.296875-.664063.660156v3.640625c0 .367188.296876.660157.664063.660157h.660156c.367188 0 .660157-.292969.660157-.660157v-3.640625c0-.363281-.292969-.660156-.660157-.660156zm0 5.953125c-.367187 0-.664063.296875-.664063.664063v.660156c0 .367187.296876.660156.664063.660156h.660156c.367188 0 .660157-.292969.660157-.660156v-.660156c0-.367188-.292969-.664063-.660157-.664063zm0 0" fill="#424242" fill-opacity=".392157"/></svg>

<?xml version="1.0" encoding="UTF-8"?>
<svg xmlns="http://www.w3.org/2000/svg" xmlns:xlink="http://www.w3.org/1999/xlink" width="16px" height="16px" viewBox="0 0 16 16" version="1.1">
<g id="surface1">
<path style=" stroke:none;fill-rule:nonzero;fill:rgb(25.882354%,25.882354%,25.882354%);fill-opacity:0.392157;" d="M 7.9375 1.273438 C 7.589844 1.273438 6.921875 1.277344 6.242188 1.332031 C 5.5625 1.382812 4.953125 1.382812 4.324219 1.746094 C 3.691406 2.113281 3.382812 2.640625 3 3.203125 C 2.617188 3.765625 2.277344 4.339844 2.105469 4.640625 C 1.929688 4.941406 1.601562 5.523438 1.304688 6.140625 C 1.011719 6.753906 0.707031 7.28125 0.707031 8.011719 C 0.707031 8.738281 1.011719 9.269531 1.304688 9.882812 C 1.601562 10.496094 1.929688 11.078125 2.105469 11.378906 C 2.277344 11.679688 2.617188 12.257812 3 12.820312 C 3.382812 13.382812 3.691406 13.910156 4.324219 14.273438 C 4.953125 14.636719 5.5625 14.640625 6.242188 14.691406 C 6.921875 14.742188 7.589844 14.746094 7.9375 14.746094 C 8.285156 14.746094 8.953125 14.742188 9.632812 14.691406 C 10.3125 14.640625 10.921875 14.636719 11.554688 14.273438 C 12.183594 13.910156 12.492188 13.382812 12.875 12.820312 C 13.257812 12.257812 13.597656 11.679688 13.773438 11.378906 C 13.945312 11.078125 14.277344 10.496094 14.570312 9.882812 C 14.867188 9.269531 15.167969 8.738281 15.167969 8.011719 C 15.167969 7.28125 14.867188 6.753906 14.570312 6.140625 C 14.277344 5.523438 13.945312 4.941406 13.773438 4.640625 C 13.597656 4.339844 13.257812 3.765625 12.875 3.203125 C 12.492188 2.640625 12.183594 2.113281 11.554688 1.746094 C 10.921875 1.382812 10.3125 1.382812 9.632812 1.332031 C 8.953125 1.277344 8.285156 1.273438 7.9375 1.273438 Z M 7.9375 2.945312 C 8.265625 2.945312 8.902344 2.953125 9.507812 2.996094 C 10.066406 3.039062 10.667969 3.195312 10.714844 3.199219 C 10.742188 3.238281 11.179688 3.679688 11.496094 4.144531 C 11.835938 4.644531 12.160156 5.195312 12.324219 5.476562 C 12.488281 5.761719 12.800781 6.316406 13.0625 6.863281 C 13.308594 7.371094 13.472656 7.964844 13.496094 8.011719 C 13.472656 8.054688 13.308594 8.652344 13.0625 9.15625 C 12.800781 9.703125 12.488281 10.257812 12.324219 10.542969 C 12.160156 10.828125 11.835938 11.375 11.496094 11.875 C 11.179688 12.339844 10.742188 12.78125 10.714844 12.824219 C 10.667969 12.824219 10.066406 12.980469 9.507812 13.023438 C 8.902344 13.070312 8.265625 13.074219 7.9375 13.074219 C 7.609375 13.074219 6.972656 13.070312 6.367188 13.023438 C 5.808594 12.980469 5.210938 12.824219 5.160156 12.824219 C 5.132812 12.78125 4.699219 12.339844 4.382812 11.875 C 4.039062 11.375 3.714844 10.828125 3.550781 10.542969 C 3.386719 10.257812 3.074219 9.703125 2.8125 9.15625 C 2.570312 8.652344 2.40625 8.054688 2.382812 8.011719 C 2.40625 7.964844 2.570312 7.371094 2.8125 6.863281 C 3.074219 6.316406 3.386719 5.761719 3.550781 5.476562 C 3.714844 5.195312 4.039062 4.644531 4.382812 4.144531 C 4.699219 3.679688 5.132812 3.238281 5.160156 3.199219 C 5.210938 3.195312 5.808594 3.039062 6.367188 2.996094 C 6.972656 2.953125 7.609375 2.945312 7.9375 2.945312 Z M 7.609375 4.09375 C 7.242188 4.09375 6.945312 4.390625 6.945312 4.753906 L 6.945312 8.394531 C 6.945312 8.761719 7.242188 9.054688 7.609375 9.054688 L 8.269531 9.054688 C 8.636719 9.054688 8.929688 8.761719 8.929688 8.394531 L 8.929688 4.753906 C 8.929688 4.390625 8.636719 4.09375 8.269531 4.09375 Z M 7.609375 10.046875 C 7.242188 10.046875 6.945312 10.34375 6.945312 10.710938 L 6.945312 11.371094 C 6.945312 11.738281 7.242188 12.03125 7.609375 12.03125 L 8.269531 12.03125 C 8.636719 12.03125 8.929688 11.738281 8.929688 11.371094 L 8.929688 10.710938 C 8.929688 10.34375 8.636719 10.046875 8.269531 10.046875 Z M 7.609375 10.046875 "/>
</g>
</svg>
